site/img/u1.svg

<?xml version="1.0" encoding="UTF-8" standalone="no"?>
<svg
   xml:space="preserve"
   width="300"
   height="300"
   version="1.1"
   id="svg6"
   sodipodi:docname="u1.svg"
   viewBox="0 0 300 300"
   inkscape:version="1.2.2 (b0a8486541, 2022-12-01)"
   xmlns:inkscape="http://www.inkscape.org/namespaces/inkscape"
   xmlns:sodipodi="http://sodipodi.sourceforge.net/DTD/sodipodi-0.dtd"
   xmlns="http://www.w3.org/2000/svg"
   xmlns:svg="http://www.w3.org/2000/svg"><defs
   id="defs10" /><sodipodi:namedview
   id="namedview8"
   pagecolor="#ffffff"
   bordercolor="#666666"
   borderopacity="1.0"
   inkscape:showpageshadow="2"
   inkscape:pageopacity="0.0"
   inkscape:pagecheckerboard="0"
   inkscape:deskcolor="#d1d1d1"
   showgrid="false"
   inkscape:zoom="0.83256899"
   inkscape:cx="142.9311"
   inkscape:cy="145.3333"
   inkscape:window-width="2560"
   inkscape:window-height="1440"
   inkscape:window-x="0"
   inkscape:window-y="0"
   inkscape:window-maximized="1"
   inkscape:current-layer="svg6" />
  <path
   fill="#e20613"
   fill-rule="evenodd"
   d="M 300,300 H 0 V 0 h 300 z"
   clip-rule="evenodd"
   id="path2"
   style="stroke-width:1.05754"
   inkscape:label="bg" />
  <path
   fill="#ffffff"
   fill-rule="evenodd"
   d="M 212.77547,222.73811 H 241.8542 V 72.961269 h -25.26767 c -1.46156,10.068818 -6.2685,17.090994 -15.70776,22.184582 -5.51074,2.984292 -15.24104,5.617739 -25.20206,5.617739 v 18.37919 h 36.86805 z M 58.381811,73.079626 58.147919,177.90608 c 0,15.45302 3.809995,24.23047 10.726192,32.30941 8.265571,9.4802 22.2165,17.26325 47.128569,17.26325 38.39522,0 57.0335,-20.24754 57.0335,-50.3367 L 172.91764,73.079626 h -29.30838 v 99.501434 c 0,12.23307 -1.75789,16.15154 -4.57199,20.36484 -4.16136,6.32366 -11.66281,11.00511 -23.09386,11.00511 -18.464709,0 -28.48711,-10.82757 -28.48711,-28.97216 L 87.690191,72.961269 Z"
   clip-rule="evenodd"
   id="path4"
   style="stroke-width:1.05754"
   inkscape:label="u1" />
</svg>

<?xml version="1.0" encoding="UTF-8"?>
<svg width="300" height="300" version="1.1" viewBox="0 0 300 300" xml:space="preserve" xmlns="http://www.w3.org/2000/svg">
  <path d="m300 300h-300v-300h300z" clip-rule="evenodd" fill="#e20613" fill-rule="evenodd" stroke-width="1.0575"/>
  <path d="m212.78 222.74h29.079v-149.78h-25.268c-1.4616 10.069-6.2685 17.091-15.708 22.185-5.5107 2.9843-15.241 5.6177-25.202 5.6177v18.379h36.868zm-154.39-149.66-0.23389 104.83c0 15.453 3.81 24.23 10.726 32.309 8.2656 9.4802 22.216 17.263 47.129 17.263 38.395 0 57.034-20.248 57.034-50.337l-0.11854-104.06h-29.308v99.501c0 12.233-1.7579 16.152-4.572 20.365-4.1614 6.3237-11.663 11.005-23.094 11.005-18.465 0-28.487-10.828-28.487-28.972l0.23389-102.02z" clip-rule="evenodd" fill="#fff" fill-rule="evenodd" stroke-width="1.0575"/>
</svg>
